X: 24301
T: Lost Ring, The
R: jig
M: 6/8
K: Gmajor
|:DGA B2d|cBA BGF|DFG AFG|ABA AGF|
DGA B2d|cBA BGF|DFG ABG|AGF G3:|
|:EFG B2B|cBA BGF|DFG AFG|ABA AGF|
EFG B2B|cBA BGF|DFG ABG|1 AGF E2z:|2 AGF G3||

